packages/icons/svg/Fill/weight.svg

<svg width="24" height="24" viewBox="0 0 24 24" fill="none" xmlns="http://www.w3.org/2000/svg">
<g id="Icon/Fill/weight">
<path id="Mask" fill-rule="evenodd" clip-rule="evenodd" d="M11 4.1719V5.9999C11 6.5529 11.448 6.9999 12 6.9999C12.552 6.9999 13 6.5529 13 5.9999V4.1719C13.923 4.4979 14.651 5.2669 14.907 6.2709C14.97 6.4919 15 6.7319 15 6.9999C15 8.6539 13.654 9.9999 12 9.9999C10.346 9.9999 9 8.6539 9 6.9999C9 6.7379 9.031 6.5049 9.091 6.2879C9.094 6.2759 9.095 6.2649 9.098 6.2529L9.102 6.2379C9.354 5.2559 10.08 4.4959 11 4.1719ZM18 4.9999H16.578C15.799 3.2009 14.017 1.9999 12 1.9999C9.977 1.9999 8.191 3.2089 7.42 4.9999H6C4.346 4.9999 3 6.3459 3 7.9999V18.9999C3 20.6539 4.346 21.9999 6 21.9999H18C19.654 21.9999 21 20.6539 21 18.9999V7.9999C21 6.3459 19.654 4.9999 18 4.9999Z" fill="#000000"/>
</g>
</svg>

<svg fill="none" height="24" viewBox="0 0 24 24" width="24" xmlns="http://www.w3.org/2000/svg"><path clip-rule="evenodd" d="m11 4.17193v1.828c0 .553.448 1 1 1s1-.447 1-1v-1.828c.923.326 1.651 1.095 1.907 2.099.063.221.093.461.093.729 0 1.654-1.346 3-3 3s-3-1.346-3-3c0-.262.031-.495.091-.712.003-.012.004-.023.007-.035l.004-.015c.252-.982.978-1.742 1.898-2.066m7 .82807h-1.422c-.779-1.799-2.561-3-4.578-3-2.023 0-3.809 1.209-4.58 3h-1.42c-1.654 0-3 1.346-3 3v11c0 1.654 1.346 3 3 3h12c1.654 0 3-1.346 3-3v-11c0-1.654-1.346-3-3-3" fill="#6b7280" fill-rule="evenodd"/></svg>
